tools/download-figma-icons/icons/solid/remote-control.svg

<svg width="24" height="24" viewBox="0 0 24 24" fill="none" xmlns="http://www.w3.org/2000/svg">
<path fill-rule="evenodd" clip-rule="evenodd" d="M13.121 0.0213529C15.9583 -0.169897 18.8023 0.930353 20.9203 3.0491C23.03 5.15885 24.1325 7.9916 23.9443 10.8206C23.918 11.2174 23.588 11.5211 23.1965 11.5211C23.18 11.5211 23.1628 11.5204 23.1463 11.5196C22.733 11.4919 22.4203 11.1341 22.4473 10.7209C22.6078 8.3231 21.6643 5.91335 19.8598 4.1096C18.0478 2.2976 15.6185 1.35185 13.223 1.51835C12.8165 1.5416 12.452 1.23485 12.4235 0.820853C12.3958 0.408353 12.7078 0.0498529 13.121 0.0213529ZM13.0907 3.34864C12.679 3.39364 12.382 3.76414 12.4262 4.17589C12.4712 4.58689 12.8335 4.88464 13.2535 4.83964C14.794 4.67089 16.3525 5.25139 17.5307 6.42889C18.6902 7.58914 19.2692 9.14539 19.1207 10.6994C19.081 11.1119 19.3832 11.4779 19.795 11.5176C19.8197 11.5206 19.8437 11.5206 19.8677 11.5206C20.2502 11.5206 20.5757 11.2311 20.6132 10.8426C20.806 8.84164 20.0687 6.84664 18.5912 5.36839C17.0905 3.86764 15.0857 3.13339 13.0907 3.34864ZM11.5416 15.4439C10.7016 16.2839 9.33733 16.2839 8.49658 15.4439C7.64983 14.6039 7.64983 13.2389 8.49658 12.3989C9.33733 11.5589 10.7016 11.5589 11.5416 12.3989C12.3816 13.2389 12.3816 14.6039 11.5416 15.4439ZM7.88159 8.64141L1.25159 16.1489C-0.435911 18.1589 -0.412661 20.9564 1.29659 22.6664C2.17409 23.5439 3.30734 23.9864 4.47659 23.9864C5.62409 23.9864 6.80909 23.5589 7.82159 22.6964L15.3291 16.0289C17.3766 13.9814 17.3766 10.6514 15.3291 8.60391C13.2891 6.55641 9.95909 6.55641 7.88159 8.64141Z" fill="black"/>
</svg>

<svg xmlns="http://www.w3.org/2000/svg" width="24" height="24" fill="none" viewBox="0 0 24 24"><path fill="currentColor" fill-rule="evenodd" d="M13.121.021c2.837-.19 5.681.91 7.8 3.028 2.109 2.11 3.212 4.943 3.023 7.772a.75.75 0 1 1-1.497-.1c.16-2.398-.783-4.808-2.587-6.611-1.812-1.812-4.241-2.758-6.637-2.592a.76.76 0 0 1-.8-.697.75.75 0 0 1 .698-.8m-.03 3.328a.751.751 0 0 0 .163 1.49c1.54-.168 3.098.412 4.277 1.59 1.16 1.16 1.738 2.716 1.59 4.27a.75.75 0 0 0 .674.819q.037.004.073.003c.382 0 .708-.29.745-.678.193-2.001-.544-3.996-2.022-5.475-1.5-1.5-3.505-2.235-5.5-2.02m-1.55 12.095c-.84.84-2.204.84-3.044 0a2.143 2.143 0 0 1 0-3.045c.84-.84 2.205-.84 3.045 0s.84 2.205 0 3.045M7.882 8.64l-6.63 7.508c-1.687 2.01-1.664 4.807.046 6.517a4.46 4.46 0 0 0 3.18 1.32c1.147 0 2.332-.427 3.345-1.29l7.507-6.667a5.255 5.255 0 0 0 0-7.425c-2.04-2.048-5.37-2.048-7.447.037" clip-rule="evenodd"/></svg>
